icons/bitbucket.svg

<?xml version="1.0" encoding="UTF-8"?>
<svg width="256px" height="231px" viewBox="0 0 256 231" version="1.1" xmlns="http://www.w3.org/2000/svg" xmlns:xlink="http://www.w3.org/1999/xlink" preserveAspectRatio="xMidYMid">
    <defs>
        <linearGradient x1="108.63338%" y1="13.818022%" x2="46.9265964%" y2="78.7761408%" id="linearGradient-1">
            <stop stop-color="#0052CC" offset="18%"></stop>
            <stop stop-color="#2684FF" offset="100%"></stop>
        </linearGradient>
    </defs>
    <g fill="none">
				<polygon points="101.272088 152.561281 154.720712 152.561281 167.622105 77.2417255 87.0600784 77.2417255"></polygon>
				<path d="M8.30813067,0.000683498206 C5.88502974,-0.0305685468 3.57212663,1.01125669 1.98985644,2.84669011 C0.407586248,4.68212353 -0.282086001,7.12328571 0.105843921,9.51533612 L34.9245512,220.888266 C35.8200362,226.227525 40.4199456,230.153012 45.8335925,230.197861 L212.873162,230.197861 C216.936516,230.250159 220.425595,227.319332 221.075449,223.30794 L255.894156,9.55634756 C256.282086,7.16429714 255.592414,4.72313497 254.010144,2.88770154 C252.427873,1.05226812 250.11497,0.0104428869 247.691869,0.0416949319 L8.30813067,0.000683498206 Z M154.924006,152.768274 L101.609142,152.768274 L87.1731177,77.3482475 L167.842608,77.3482475 L154.924006,152.768274 Z" fill="#2684FF"></path>
				<path d="M244.610824,77.2417255 L167.693776,77.2417255 L154.78548,152.601582 L101.513151,152.601582 L38.6108235,227.264801 C40.6045494,228.988786 43.1464609,229.94745 45.7820986,229.969396 L212.729383,229.969396 C216.789495,230.021652 220.275791,227.093164 220.925126,223.084972 L244.610824,77.2417255 Z" fill="url(#linearGradient-1)"></path>
    </g>
</svg>

<svg xmlns="http://www.w3.org/2000/svg" viewBox="0 0 256 230.199">
  <defs>
    <linearGradient id="a" x1="225.935" x2="116.482" y1="114.217" y2="229.436" gradientTransform="scale(1.16138 .86105)" gradientUnits="userSpaceOnUse">
      <stop offset="18%" stop-color="#0052CC"/>
      <stop offset="100%" stop-color="#2684FF"/>
    </linearGradient>
  </defs>
  <g fill="none">
    <path d="M167.622 77.242H87.06l14.212 75.32h53.449z"/>
    <path fill="#2684ff" d="M8.308 0A8.202 8.202 0 0 0 .106 9.516l34.819 211.373a11.155 11.155 0 0 0 10.909 9.31h167.04a8.202 8.202 0 0 0 8.201-6.89l34.82-213.752a8.202 8.202 0 0 0-8.203-9.514zm146.616 152.768h-53.315l-14.436-75.42h80.67z"/>
    <path fill="url(#a)" d="M244.61 77.242h-76.916l-12.909 75.36h-53.272l-62.902 74.663a11.105 11.105 0 0 0 7.171 2.704H212.73a8.196 8.196 0 0 0 8.196-6.884z" style="fill:url(#a)"/>
  </g>
</svg>
